24x24/places/folder-yellow-publicshare-open.svg

<svg xmlns="http://www.w3.org/2000/svg" width="24" height="24" version="1"><rect style="opacity:.2" width="20" height="12" x="2" y="9.5" rx="1" ry="1"/><path style="fill:#b58f1b" d="M2 17c0 .554.446 1 1 1h18c.554 0 1-.446 1-1V6c0-.554-.446-1-1-1h-9c-1.5 0-2-2-3.5-2H3c-.554 0-1 .446-1 1"/><rect style="opacity:.2" width="20" height="10" x="2" y="10.5" rx="1" ry="1"/><rect style="fill:#f4f4f7" width="16" height="8" x="4" y="7" rx="1" ry="1"/><rect style="fill:#e2b322" width="20" height="10" x="2" y="11" rx="1" ry="1"/><path style="opacity:.1;fill:#f4f4f7" d="M3 3c-.554 0-1 .446-1 1v.5c0-.554.446-1 1-1h5.5c1.5 0 2 2 3.5 2h9c.554 0 1 .446 1 1V6c0-.554-.446-1-1-1h-9c-1.5 0-2-2-3.5-2z"/><path style="fill:#4f3e0c" d="M12 13a2 2 0 0 0-2 2 2 2 0 0 0 2 2 2 2 0 0 0 2-2 2 2 0 0 0-2-2zm-1.693 4.062c-1.264.216-2.18.652-2.295 1.174-.002.006 0 .013 0 .018-.004.02-.005.038-.006.058 0 .01-.006.016-.006.026v1.394c0 .149.088.268.2.268H15.8c.111 0 .199-.119.199-.268v-1.404c-.001-.032-.012-.06-.02-.092-.115-.521-1.029-.958-2.289-1.174A2 2 0 0 1 12 18a2 2 0 0 1-1.693-.938z"/></svg>

<svg xmlns="http://www.w3.org/2000/svg" width="24" height="24" version="1">
 <rect style="opacity:0.2" width="20" height="12" x="2" y="9.5" rx="1" ry="1"/>
 <path style="fill:#b58f1b" d="M 2,17 C 2,17.554 2.446,18 3,18 H 21 C 21.554,18 22,17.554 22,17 V 6 C 22,5.446 21.554,5 21,5 H 12 C 10.5,5 10,3 8.5,3 H 3 C 2.446,3 2,3.446 2,4"/>
 <rect style="opacity:0.2" width="20" height="10" x="2" y="10.5" rx="1" ry="1"/>
 <rect style="fill:#f4f4f7" width="16" height="8" x="4" y="7" rx="1" ry="1"/>
 <rect style="fill:#e2b322" width="20" height="10" x="2" y="11" rx="1" ry="1"/>
 <path style="opacity:0.1;fill:#f4f4f7" d="M 3,3 C 2.446,3 2,3.446 2,4 V 4.5 C 2,3.946 2.446,3.5 3,3.5 H 8.5 C 10,3.5 10.5,5.5 12,5.5 H 21 C 21.554,5.5 22,5.946 22,6.5 V 6 C 22,5.446 21.554,5 21,5 H 12 C 10.5,5 10,3 8.5,3 Z"/>
 <path style="fill:#4f3e0c" d="M 12,13 A 2,2 0 0 0 9.9999,15 2,2 0 0 0 12,17 2,2 0 0 0 14,15 2,2 0 0 0 12,13 Z M 10.307,17.062 C 9.0431,17.278 8.1267,17.714 8.0116,18.236 8.0099,18.242 8.0128,18.249 8.0116,18.254 8.0076,18.274 8.0075,18.292 8.0058,18.312 8.0052,18.322 7.9999,18.328 7.9999,18.338 7.9998,18.341 7.9999,18.341 7.9999,18.344 V 19.732 C 7.9999,19.881 8.0883,20 8.1991,20 H 15.801 C 15.912,20 16,19.881 16,19.732 V 18.328 C 15.999,18.296 15.988,18.268 15.98,18.236 15.865,17.715 14.951,17.278 13.691,17.062 A 2,2 0 0 1 12,18 2,2 0 0 1 10.307,17.062 Z"/>
</svg>
